icons/Editor/input-cursor-move.svg

<svg viewBox="0 0 24 24" xmlns="http://www.w3.org/2000/svg"><path d="M8 21V19H11V5H8V3H16V5H13V19H16V21H8ZM18.0503 7.05025L23 12L18.0503 16.9497L16.636 15.5355L20.1716 12L16.636 8.46447L18.0503 7.05025ZM5.94975 7.05025L7.36396 8.46447L3.82843 12L7.36396 15.5355L5.94975 16.9497L1 12L5.94975 7.05025Z"/></svg>

<svg xmlns="http://www.w3.org/2000/svg" viewBox="0 0 24 24">
    <path fill="none" d="M0 0h24v24H0z"/>
    <path d="M8 21v-2h3V5H8V3h8v2h-3v14h3v2H8zM18.05 7.05L23 12l-4.95 4.95-1.414-1.414L20.172 12l-3.536-3.536L18.05 7.05zm-12.1 0l1.414 1.414L3.828 12l3.536 3.536L5.95 16.95 1 12l4.95-4.95z"/>
</svg>
